X:556
T: HOERT IHR NICHT DEN JAEGER BLASEN
N: E0528B
O: Europa, Mitteleuropa, Deutschland, Hessen, Nassau, Hennethal
R: Liebes - Lied
M: 4/4
L: 1/8
K: G
 | G2A2A2A2 | ABcdcBG2 |
E2G2G2G2 | G2cBBAA2 |
CEGAB2G2 | FAcff4 |
d2fdc2A2 | c2cBA4

@@@ Tune index: 4206
